X:147
T:Droneless
Z:Jack Campin, http://www.campin.me.uk/
F:Jack Campin's Nine-Note Tunebook
% last edit 03-02-2013
Z:Steve Mansfield
C:Lawrence Morgan-Anstee (Eel Grinders) 
M:6/8
L:1/8
Q:3/8=110
K:GMin
D|G3  GFD|   F3  F2G|F3  F2G|   EDC C3 |\
  G3  GFD|
          [1 A3  A2B|A3  AGF|   G2D D2:|\
          [2 A2D F2G|A2D F2G|   G3- G3||
|:DGA BAG|   EBA BAG|CAG AGF|   DAG A3 |
  DGA BAG|   DFD BDF|CFG AGF|[1 G3- G3:|\
                             [2 G2D D2|]

